src/32/apps/multimedia-video-player.svg

<?xml version="1.0" encoding="UTF-8" standalone="no"?>
<svg
   xmlns:dc="http://purl.org/dc/elements/1.1/"
   xmlns:cc="http://creativecommons.org/ns#"
   xmlns:rdf="http://www.w3.org/1999/02/22-rdf-syntax-ns#"
   xmlns:svg="http://www.w3.org/2000/svg"
   xmlns="http://www.w3.org/2000/svg"
   xmlns:xlink="http://www.w3.org/1999/xlink"
   xmlns:sodipodi="http://sodipodi.sourceforge.net/DTD/sodipodi-0.dtd"
   xmlns:inkscape="http://www.inkscape.org/namespaces/inkscape"
   id="svg2526"
   height="32"
   width="32"
   version="1.0"
   sodipodi:docname="multimedia-video-player.svg"
   inkscape:version="0.92.4 (5da689c313, 2019-01-14)">
  <sodipodi:namedview
     pagecolor="#ffffff"
     bordercolor="#666666"
     borderopacity="1"
     objecttolerance="10"
     gridtolerance="10"
     guidetolerance="10"
     inkscape:pageopacity="0"
     inkscape:pageshadow="2"
     inkscape:window-width="1366"
     inkscape:window-height="697"
     id="namedview44"
     showgrid="false"
     inkscape:zoom="7.375"
     inkscape:cx="28.411509"
     inkscape:cy="15.189111"
     inkscape:window-x="0"
     inkscape:window-y="0"
     inkscape:window-maximized="1"
     inkscape:current-layer="svg2526" />
  <metadata
     id="metadata58">
    <rdf:RDF>
      <cc:Work
         rdf:about="">
        <dc:format>image/svg+xml</dc:format>
        <dc:type
           rdf:resource="http://purl.org/dc/dcmitype/StillImage" />
        <dc:title />
      </cc:Work>
    </rdf:RDF>
  </metadata>
  <defs
     id="defs2528">
    <linearGradient
       id="linearGradient857">
      <stop
         id="stop853"
         offset="0"
         style="stop-color:#ed5353;stop-opacity:1" />
      <stop
         id="stop855"
         offset="1"
         style="stop-color:#c6262e;stop-opacity:1" />
    </linearGradient>
    <linearGradient
       id="linearGradient5060">
      <stop
         offset="0"
         style="stop-color:#000000;stop-opacity:1"
         id="stop5062" />
      <stop
         offset="1"
         style="stop-color:#000000;stop-opacity:0"
         id="stop5064" />
    </linearGradient>
    <linearGradient
       id="linearGradient5048">
      <stop
         offset="0"
         style="stop-color:#000000;stop-opacity:0"
         id="stop5050" />
      <stop
         offset="0.5"
         style="stop-color:#000000;stop-opacity:1"
         id="stop5056" />
      <stop
         offset="1"
         style="stop-color:#000000;stop-opacity:0"
         id="stop5052" />
    </linearGradient>
    <linearGradient
       gradientTransform="matrix(0.05633073,0,0,0.01647059,-4.3595357,20.961096)"
       gradientUnits="userSpaceOnUse"
       xlink:href="#linearGradient5048"
       id="linearGradient3188"
       y2="609.50507"
       x2="302.85715"
       y1="366.64789"
       x1="302.85715" />
    <radialGradient
       gradientTransform="matrix(-0.01927752,0,0,0.01647059,14.017952,20.961131)"
       gradientUnits="userSpaceOnUse"
       xlink:href="#linearGradient5060"
       id="radialGradient3190"
       fy="486.64789"
       fx="605.71429"
       r="117.14286"
       cy="486.64789"
       cx="605.71429" />
    <radialGradient
       gradientTransform="matrix(0.01927752,0,0,0.01647059,17.982045,20.961131)"
       gradientUnits="userSpaceOnUse"
       xlink:href="#linearGradient5060"
       id="radialGradient3192"
       fy="486.64789"
       fx="605.71429"
       r="117.14286"
       cy="486.64789"
       cx="605.71429" />
    <linearGradient
       id="linearGradient3462">
      <stop
         offset="0"
         style="stop-color:#ffffff;stop-opacity:1"
         id="stop3464" />
      <stop
         offset="0"
         style="stop-color:#ffffff;stop-opacity:0.23529412"
         id="stop3466" />
      <stop
         offset="0.99999994"
         style="stop-color:#ffffff;stop-opacity:0.15686275"
         id="stop3468" />
      <stop
         offset="1"
         style="stop-color:#ffffff;stop-opacity:0.39215687"
         id="stop3470" />
    </linearGradient>
    <linearGradient
       gradientTransform="matrix(0.78378379,0,0,0.62162162,-1.082001,-1.1392567)"
       gradientUnits="userSpaceOnUse"
       xlink:href="#linearGradient3462"
       id="linearGradient3217"
       y2="41.695652"
       x2="40.290417"
       y1="4.6956501"
       x1="40.290417" />
    <linearGradient
       id="linearGradient4215-8-4-07-7">
      <stop
         style="stop-color:#2b3235;stop-opacity:1"
         offset="0"
         id="stop4217-1-2-1-2" />
      <stop
         style="stop-color:#374044;stop-opacity:1"
         offset="1"
         id="stop4219-3-4-0-96" />
    </linearGradient>
    <linearGradient
       gradientUnits="userSpaceOnUse"
       y2="26"
       x2="17"
       y1="29"
       x1="17"
       id="linearGradient4355"
       xlink:href="#linearGradient4215-8-4-07-7" />
    <linearGradient
       gradientUnits="userSpaceOnUse"
       y2="29.89962"
       x2="18.325079"
       y1="3.6128187"
       x1="18.325079"
       id="linearGradient859"
       xlink:href="#linearGradient857" />
  </defs>
  <path
     id="rect5505-21-3-8-5-2"
     d="M 1.5507812,3.5 C 0.96861178,3.5 0.5,3.9750914 0.5,4.5644531 L 0.5,25 l 31,0 0,-20.4355469 C 31.5,3.9750914 31.031388,3.5 30.449219,3.5 Z"
     style="color:#000000;display:inline;overflow:visible;visibility:visible;opacity:1;fill:#e94f50;fill-opacity:1;fill-rule:nonzero;stroke:none;stroke-width:0.99999994;marker:none;enable-background:accumulate" />
  <path
     id="rect5505-21-3-8-9-1-1"
     d="M 1.5507812,3 C 0.69694522,3 0,3.7100149 0,4.5644531 L 0,25 1,25 1,4.5644531 C 1,4.2401681 1.2402785,4 1.5507812,4 L 30.449219,4 C 30.759722,4 31,4.2401681 31,4.5644531 L 31,25 32,25 32,4.5644531 C 32,3.7100149 31.303055,3 30.449219,3 Z"
     style="color:#000000;font-style:normal;font-variant:normal;font-weight:normal;font-stretch:normal;font-size:medium;line-height:normal;font-family:sans-serif;text-indent:0;text-align:start;text-decoration:none;text-decoration-line:none;text-decoration-style:solid;text-decoration-color:#000000;letter-spacing:normal;word-spacing:normal;text-transform:none;direction:ltr;block-progression:tb;writing-mode:lr-tb;baseline-shift:baseline;text-anchor:start;white-space:normal;clip-rule:nonzero;display:inline;overflow:visible;visibility:visible;opacity:0.35;isolation:auto;mix-blend-mode:normal;color-interpolation:sRGB;color-interpolation-filters:linearRGB;solid-color:#000000;solid-opacity:1;fill:#7a0000;fill-opacity:1;fill-rule:nonzero;stroke:none;stroke-width:1;stroke-linecap:round;stroke-linejoin:round;stroke-miterlimit:4;stroke-dasharray:none;stroke-dashoffset:0;stroke-opacity:1;marker:none;color-rendering:auto;image-rendering:auto;shape-rendering:auto;text-rendering:auto;enable-background:accumulate" />
  <path
     d="M 12.40608,10.00761 C 12.168025,10.054655 11.99734,10.264623 12,10.507151 l 0,8.991726 c 0.0019,0.383475 0.414795,0.624225 0.749686,0.437098 l 7.996656,-4.495863 c 0.33817,-0.193385 0.33817,-0.680811 0,-0.874196 l -7.996656,-4.495863 c -0.103423,-0.06109 -0.225285,-0.083244 -0.343606,-0.06244 z"
     id="path4010"
     style="fill:#ffffff;fill-opacity:1;fill-rule:evenodd;stroke:none" />
  <path
     id="rect4341"
     d="m 0.5,25 0,3.435547 C 0.5,29.024909 0.96861178,29.5 1.5507812,29.5 l 28.8984378,0 C 31.031388,29.5 31.5,29.024909 31.5,28.435547 L 31.5,25 Z"
     style="color:#000000;display:inline;overflow:visible;visibility:visible;opacity:1;fill:#546268;fill-opacity:1;fill-rule:nonzero;stroke:none;stroke-width:0.99999994;marker:none;enable-background:accumulate" />
  <path
     id="rect4343"
     d="m 0,25 0,3.435547 C 0,29.289985 0.69694522,30 1.5507812,30 L 30.449219,30 C 31.303055,30 32,29.289985 32,28.435547 L 32,25 l -1,0 0,3.435547 C 31,28.759832 30.759722,29 30.449219,29 L 1.5507812,29 C 1.2402784,29 1,28.759832 1,28.435547 L 1,25 Z"
     style="color:#000000;font-style:normal;font-variant:normal;font-weight:normal;font-stretch:normal;font-size:medium;line-height:normal;font-family:sans-serif;text-indent:0;text-align:start;text-decoration:none;text-decoration-line:none;text-decoration-style:solid;text-decoration-color:#000000;letter-spacing:normal;word-spacing:normal;text-transform:none;direction:ltr;block-progression:tb;writing-mode:lr-tb;baseline-shift:baseline;text-anchor:start;white-space:normal;clip-rule:nonzero;display:inline;overflow:visible;visibility:visible;opacity:0.35;isolation:auto;mix-blend-mode:normal;color-interpolation:sRGB;color-interpolation-filters:linearRGB;solid-color:#000000;solid-opacity:1;fill:#000000;fill-opacity:1;fill-rule:nonzero;stroke:none;stroke-width:1;stroke-linecap:round;stroke-linejoin:round;stroke-miterlimit:4;stroke-dasharray:none;stroke-dashoffset:0;stroke-opacity:1;marker:none;color-rendering:auto;image-rendering:auto;shape-rendering:auto;text-rendering:auto;enable-background:accumulate" />
  <path
     id="rect4497"
     d="M 2.4627379,27 29.537262,27 C 29.793619,27 30,27.206381 30,27.462738 l 0,0.07452 C 30,27.793619 29.793619,28 29.537262,28 L 2.4627379,28 C 2.2063811,28 2,27.793619 2,27.537262 l 0,-0.07452 C 2,27.206381 2.2063811,27 2.4627379,27 Z"
     style="opacity:0.4;fill:#000000;fill-opacity:1;stroke:none;stroke-width:2;stroke-linecap:round;stroke-linejoin:round;stroke-miterlimit:4;stroke-dasharray:none;stroke-opacity:1" />
  <circle
     r="1.5"
     cy="27.5"
     cx="8.5"
     id="path4649"
     style="opacity:1;fill:#161b1e;fill-opacity:1;stroke:none;stroke-width:3;stroke-linecap:round;stroke-linejoin:round;stroke-miterlimit:4;stroke-dasharray:none;stroke-opacity:1" />
  <path
     id="path4202"
     d="m 1,25 0,1 30,0 0,-1 z"
     style="color:#000000;font-style:normal;font-variant:normal;font-weight:normal;font-stretch:normal;font-size:medium;line-height:normal;font-family:sans-serif;text-indent:0;text-align:start;text-decoration:none;text-decoration-line:none;text-decoration-style:solid;text-decoration-color:#000000;letter-spacing:normal;word-spacing:normal;text-transform:none;direction:ltr;block-progression:tb;writing-mode:lr-tb;baseline-shift:baseline;text-anchor:start;white-space:normal;clip-rule:nonzero;display:inline;overflow:visible;visibility:visible;opacity:0.5;isolation:auto;mix-blend-mode:normal;color-interpolation:sRGB;color-interpolation-filters:linearRGB;solid-color:#000000;solid-opacity:1;fill:#000000;fill-opacity:1;fill-rule:evenodd;stroke:none;stroke-width:1px;stroke-linecap:butt;stroke-linejoin:miter;stroke-miterlimit:4;stroke-dasharray:none;stroke-dashoffset:0;stroke-opacity:1;color-rendering:auto;image-rendering:auto;shape-rendering:auto;text-rendering:auto;enable-background:accumulate" />
</svg>

<svg xmlns="http://www.w3.org/2000/svg" height="32" width="32" version="1.0"><defs><linearGradient id="e"><stop offset="0" stop-color="#ed5353"/><stop offset="1" stop-color="#c6262e"/></linearGradient><linearGradient id="b"><stop offset="0"/><stop offset="1" stop-opacity="0"/></linearGradient><linearGradient id="a"><stop offset="0" stop-opacity="0"/><stop offset=".5"/><stop offset="1" stop-opacity="0"/></linearGradient><linearGradient id="c"><stop offset="0" stop-color="#fff"/><stop offset="0" stop-color="#fff" stop-opacity=".235"/><stop offset="1" stop-color="#fff" stop-opacity=".157"/><stop offset="1" stop-color="#fff" stop-opacity=".392"/></linearGradient><linearGradient id="d"><stop offset="0" stop-color="#2b3235"/><stop offset="1" stop-color="#374044"/></linearGradient></defs><path d="M1.55 3.5C.97 3.5.5 3.975.5 4.564V25h31V4.564c0-.589-.469-1.064-1.05-1.064z" style="marker:none" color="#000" overflow="visible" fill="#e94f50"/><path d="M1.55 3C.698 3 0 3.71 0 4.564V25h1V4.564C1 4.24 1.24 4 1.55 4h28.9c.31 0 .55.24.55.564V25h1V4.564C32 3.71 31.303 3 30.45 3z" style="line-height:normal;text-indent:0;text-align:start;text-decoration-line:none;text-decoration-style:solid;text-decoration-color:#000;text-transform:none;block-progression:tb;white-space:normal;isolation:auto;mix-blend-mode:normal;solid-color:#000;solid-opacity:1;marker:none" color="#000" font-weight="400" font-family="sans-serif" overflow="visible" opacity=".35" fill="#7a0000"/><path d="M12.406 10.008a.504.504 0 0 0-.406.5v8.99a.504.504 0 0 0 .75.438l7.996-4.496a.503.503 0 0 0 0-.874L12.75 10.07a.504.504 0 0 0-.344-.062z" fill="#fff" fill-rule="evenodd"/><path d="M.5 25v3.436c0 .589.469 1.064 1.05 1.064h28.9c.581 0 1.05-.475 1.05-1.064V25z" style="marker:none" color="#000" overflow="visible" fill="#546268"/><path d="M0 25v3.436C0 29.29.697 30 1.55 30h28.9c.853 0 1.55-.71 1.55-1.564V25h-1v3.436c0 .324-.24.564-.55.564H1.55c-.31 0-.55-.24-.55-.564V25z" style="line-height:normal;text-indent:0;text-align:start;text-decoration-line:none;text-decoration-style:solid;text-decoration-color:#000;text-transform:none;block-progression:tb;white-space:normal;isolation:auto;mix-blend-mode:normal;solid-color:#000;solid-opacity:1;marker:none" color="#000" font-weight="400" font-family="sans-serif" overflow="visible" opacity=".35"/><path d="M2.463 27h27.074c.257 0 .463.206.463.463v.074a.462.462 0 0 1-.463.463H2.463A.462.462 0 0 1 2 27.537v-.074c0-.257.206-.463.463-.463z" opacity=".4"/><circle r="1.5" cy="27.5" cx="8.5" fill="#161b1e"/><path d="M1 25v1h30v-1z" style="line-height:normal;text-indent:0;text-align:start;text-decoration-line:none;text-decoration-style:solid;text-decoration-color:#000;text-transform:none;block-progression:tb;white-space:normal;isolation:auto;mix-blend-mode:normal;solid-color:#000;solid-opacity:1" color="#000" font-weight="400" font-family="sans-serif" overflow="visible" opacity=".5" fill-rule="evenodd"/></svg>
